!!!OTL: "Der Bettelmoench" UND WOLLT IHR HOEREN EIN NEUES LIED
!!!ARE: Europa, Mitteleuropa, Deutschland, Koeln
!!!SCT: Z1080
!!!YEM: Copyright 1995, estate of Helmut Schaffrath.
**kern
*ICvox
*Ivox
*M4/4
*k[b-e-]
*g:
{4g
=1
4g
4dd
4ee-
8dd
8cc
=2
4dd
8cc
8b-
4a
8r}
{8b-
=3
4cc
4a
4dd
8cc
8b-
=4
4a
8b-
8a
4g
8r}
{8g
=5
4.a
8b-
4a
4dd
=6
4cc
4b-
4a
8r}
{8a
=7
4g
8f#
8e
4f#
4g
=8
4.a
8d
4d}
{4dd
=9
4dd
8cc
8cc
4dd
8cc
8b-
=10
2a
4g}
==
!!!AGN: Romanze, Ballade
!!!ONB: ESAC (Essen Associative Code) Database: ZUCCAL
!!!AMT: simple quadruple
!!!AIN: vox
!!!EED: Helmut Schaffrath
!!!EEV: 1.0
*-
